X: 28942
T: Nan's Snowballs
R: polka
M: 2/4
K: Gmajor
|:AB ce|gg/g/ e2|gg/g/ e>d|ed e2|
AB ce|gg/g/ e2|gg/g/ e>c|BA G2:|
|:g2 dd/d/|ec e>B|ce ed/e/|gf g2|
g2 dd/d/|ec e>B|cA Gc|BA G2:|

